<?xml version="1.0" encoding="UTF-8"?>
<map version="1.10" tiledversion="1.12.2" orientation="orthogonal" renderorder="right-down" width="40" height="23" tilewidth="16" tileheight="16" infinite="0" nextlayerid="4" nextobjectid="19">
 <tileset firstgid="1" source="Pixel Adventure.tsx"/>
 <layer id="1" name="Background" width="40" height="23">
  <data encoding="csv">
24,24,24,24,24,24,24,24,24,24,24,24,24,24,24,24,24,24,24,24,24,24,24,24,24,24,24,24,24,24,24,24,24,24,24,24,24,24,24,24,
24,24,24,24,24,24,24,24,24,24,24,24,24,24,24,24,24,24,24,24,24,24,24,24,24,24,24,24,24,24,24,24,24,24,24,24,24,24,24,24,
24,24,24,24,24,24,24,24,24,24,24,24,24,24,24,24,24,24,24,24,24,24,24,24,24,24,24,24,24,24,24,24,24,24,24,24,24,24,24,24,
24,24,112,92,134,134,134,134,134,134,134,134,134,134,134,134,134,134,134,134,134,134,134,134,134,134,134,134,134,134,134,134,134,134,134,134,93,24,24,24,
24,24,112,113,0,0,0,0,0,0,0,0,0,0,0,0,0,0,0,0,0,0,0,0,0,0,0,0,0,0,0,0,0,0,0,0,111,24,24,24,
24,24,24,113,0,0,0,0,0,0,0,0,0,0,0,0,0,0,0,0,0,0,0,0,0,0,0,0,0,0,0,0,0,0,0,0,111,24,24,24,
24,24,24,113,0,0,0,0,0,0,0,0,0,0,0,0,0,0,0,0,0,0,0,0,0,0,0,0,0,0,0,0,0,0,0,0,111,24,24,24,
24,24,24,113,0,0,0,0,0,0,0,0,0,0,0,0,0,0,0,0,0,0,0,0,0,0,0,0,0,0,0,0,0,0,0,0,111,24,24,24,
24,24,24,113,0,0,0,0,0,0,0,0,0,0,0,0,0,0,0,0,0,0,0,0,0,95,96,97,0,0,0,0,0,0,0,0,111,24,24,24,
24,24,24,113,0,0,0,0,0,0,0,0,7,8,9,0,0,0,0,0,0,0,0,0,0,117,118,119,0,0,0,0,0,0,0,0,111,24,24,24,
24,24,24,113,0,0,0,0,0,0,123,0,29,30,31,0,101,102,103,0,0,0,0,0,0,139,140,141,0,0,0,95,96,97,0,0,111,24,24,24,
24,24,24,113,0,0,0,0,0,123,0,0,29,30,31,0,0,0,0,0,0,0,0,0,0,0,0,0,0,0,0,117,118,119,0,0,111,24,24,24,
24,24,24,113,0,0,0,0,0,0,0,0,29,30,31,0,0,0,0,0,101,102,103,0,0,0,0,0,0,0,0,139,140,141,0,0,111,24,24,24,
24,24,24,113,0,0,0,123,0,0,0,0,29,30,31,0,0,0,0,0,0,0,0,0,0,0,0,0,0,0,0,0,0,0,0,0,111,24,24,24,
24,24,24,113,0,0,123,0,0,0,0,0,29,30,31,0,0,0,0,0,0,0,0,0,0,0,0,0,0,0,0,0,0,0,0,0,111,24,24,24,
24,24,24,113,0,0,0,0,0,0,0,0,29,30,31,0,0,0,0,0,0,0,0,0,0,0,0,7,8,9,0,0,0,0,0,0,111,24,24,24,
24,24,24,113,7,8,8,8,8,8,8,8,30,30,30,8,8,8,8,8,8,8,8,8,8,8,8,30,30,30,8,8,8,8,8,9,111,24,24,24,
24,24,24,113,29,30,30,30,30,30,30,30,30,30,30,30,30,30,30,30,30,30,30,30,30,30,30,30,30,30,30,30,30,30,30,31,111,24,24,24,
24,24,24,113,51,52,52,52,52,52,52,52,52,52,52,52,52,52,52,52,52,52,52,52,52,52,52,52,52,52,52,52,52,52,52,53,111,24,24,24,
24,24,24,114,90,90,90,90,90,90,90,90,90,90,90,90,90,90,90,90,90,90,90,90,90,90,90,90,90,90,90,90,90,90,90,90,115,24,24,24,
24,24,24,24,24,24,24,24,24,24,24,24,24,24,24,24,24,24,24,24,24,24,24,24,24,24,24,24,24,24,24,24,24,24,24,24,24,24,24,24,
24,24,24,24,24,24,24,24,24,24,24,24,24,24,24,24,24,24,24,24,24,24,24,24,24,24,24,24,24,24,24,24,24,24,24,24,24,24,24,24,
24,24,24,24,24,24,24,24,24,24,24,24,24,24,24,24,24,24,24,24,24,24,24,24,24,24,24,24,24,24,24,24,24,24,24,24,24,24,24,24
</data>
 </layer>
 <objectgroup id="2" name="Spawnpoints">
  <object id="1" name="Player" type="Player" x="400.377" y="95.8494" width="32" height="32"/>
 </objectgroup>
 <objectgroup id="3" name="Collisions">
  <object id="3" x="64" y="256" width="512" height="48"/>
  <object id="4" x="432" y="240" width="48" height="16"/>
  <object id="5" x="192" y="144" width="48" height="112"/>
  <object id="6" x="400" y="128" width="48" height="48"/>
  <object id="7" x="496" y="160" width="48" height="48"/>
  <object id="8" x="320" y="192" width="48" height="16"/>
  <object id="9" x="256" y="160" width="48" height="16"/>
  <object id="10" x="160" y="160" width="16" height="16"/>
  <object id="11" x="144" y="176" width="16" height="16"/>
  <object id="12" x="128" y="224"/>
  <object id="13" x="112" y="208" width="16" height="16"/>
  <object id="14" x="96" y="224" width="16" height="16"/>
  <object id="15" x="48" y="48" width="544" height="16"/>
  <object id="16" x="576" y="64" width="16" height="256"/>
  <object id="17" x="48" y="304" width="528" height="16"/>
  <object id="18" x="48" y="64" width="16" height="240"/>
 </objectgroup>
</map>
